public/icons/shield-khki.svg

<svg xmlns="http://www.w3.org/2000/svg" fill="none" viewBox="4 2 16 19.99"><path d="M19.63 3.64994C19.5138 3.55596 19.3781 3.48922 19.2327 3.45461C19.0873 3.41999 18.9361 3.4184 18.79 3.44994C17.7214 3.67389 16.6183 3.67674 15.5486 3.45833C14.4789 3.23991 13.4653 2.80486 12.57 2.17994C12.4026 2.06381 12.2037 2.00159 12 2.00159C11.7963 2.00159 11.5974 2.06381 11.43 2.17994C10.5348 2.80486 9.52108 3.23991 8.45137 3.45833C7.38166 3.67674 6.27857 3.67389 5.21001 3.44994C5.06394 3.4184 4.91267 3.41999 4.76731 3.45461C4.62194 3.48922 4.48618 3.55596 4.37001 3.64994C4.25399 3.74406 4.16053 3.86298 4.0965 3.99796C4.03247 4.13294 3.9995 4.28055 4.00001 4.42994V11.8799C3.99912 13.3137 4.34078 14.7269 4.99654 16.0019C5.6523 17.2769 6.60319 18.3768 7.77001 19.2099L11.42 21.8099C11.5894 21.9305 11.7921 21.9953 12 21.9953C12.2079 21.9953 12.4106 21.9305 12.58 21.8099L16.23 19.2099C17.3968 18.3768 18.3477 17.2769 19.0035 16.0019C19.6592 14.7269 20.0009 13.3137 20 11.8799V4.42994C20.0005 4.28055 19.9675 4.13294 19.9035 3.99796C19.8395 3.86298 19.746 3.74406 19.63 3.64994ZM18 11.8799C18.0008 12.9947 17.7353 14.0935 17.2257 15.085C16.716 16.0764 15.977 16.9318 15.07 17.5799L12 19.7699L8.93001 17.5799C8.02304 16.9318 7.28399 16.0764 6.77435 15.085C6.26472 14.0935 5.99924 12.9947 6.00001 11.8799V5.57994C8.09643 5.75938 10.196 5.27297 12 4.18994C13.804 5.27297 15.9036 5.75938 18 5.57994V11.8799ZM13.54 9.58994L10.85 12.2899L9.96001 11.3899C9.7717 11.2016 9.51631 11.0958 9.25001 11.0958C8.9837 11.0958 8.72831 11.2016 8.54001 11.3899C8.3517 11.5782 8.24591 11.8336 8.24591 12.0999C8.24591 12.3662 8.3517 12.6216 8.54001 12.8099L10.14 14.4099C10.233 14.5037 10.3436 14.5781 10.4654 14.6288C10.5873 14.6796 10.718 14.7057 10.85 14.7057C10.982 14.7057 11.1127 14.6796 11.2346 14.6288C11.3564 14.5781 11.467 14.5037 11.56 14.4099L15 10.9999C15.1883 10.8116 15.2941 10.5562 15.2941 10.2899C15.2941 10.0236 15.1883 9.76825 15 9.57994C14.8117 9.39164 14.5563 9.28585 14.29 9.28585C14.0237 9.28585 13.7683 9.39164 13.58 9.57994L13.54 9.58994Z" fill="#ae9f91"></path></svg>

<svg xmlns="http://www.w3.org/2000/svg" fill="none" viewBox="4 2 16 19.99"><path fill="#ae9f91" d="M19.63 3.65a1 1 0 0 0-.84-.2 8 8 0 0 1-6.22-1.27 1 1 0 0 0-1.14 0 8 8 0 0 1-6.22 1.27A1 1 0 0 0 4 4.43v7.45a9 9 0 0 0 3.77 7.33l3.65 2.6a1 1 0 0 0 1.16 0l3.65-2.6A9 9 0 0 0 20 11.88V4.43a1 1 0 0 0-.37-.78M18 11.88a7 7 0 0 1-2.93 5.7L12 19.77l-3.07-2.19A7 7 0 0 1 6 11.88v-6.3a10 10 0 0 0 6-1.39 10 10 0 0 0 6 1.39zm-4.46-2.29-2.69 2.7-.89-.9a1.004 1.004 0 0 0-1.42 1.42l1.6 1.6a1 1 0 0 0 1.42 0L15 11a1.004 1.004 0 1 0-1.42-1.42z"/></svg>
